plasma/desktoptheme/Materia-Color/icons/kup.svg

<svg xmlns="http://www.w3.org/2000/svg" width="32" height="32" version="1">
 <defs id="materia">
  <style id="current-color-scheme" type="text/css">
   .ColorScheme-Background {color:#181818; } .ColorScheme-ButtonBackground { color:#343434; } .ColorScheme-Highlight { color:#4285f4; } .ColorScheme-Text { color:#dfdfdf; } .ColorScheme-ViewBackground { color:#242424; } .ColorScheme-NegativeText { color:#f44336; } .ColorScheme-PositiveText { color:#4caf50; } .ColorScheme-NeutralText { color:#ff9800; }
  </style>
 </defs>
 <g id="22-22-kup" transform="translate(32.000001,10.000001)">
  <rect style="opacity:0.001" width="22" height="22" x="0" y="0"/>
  <path style="fill:currentColor" class="ColorScheme-Text" d="M 4.002905,3.0004358 A 0.99829173,0.99855868 0 0 0 3.3069001,4.7145867 l 2.1036114,2.1041741 a 6.987343,6.9892116 0 0 0 -1.3978586,4.1790962 6.987343,6.9892116 0 0 0 1.3978586,4.179096 l -2.1036114,2.104174 a 0.99829173,0.99855868 0 1 0 1.4115056,1.411883 l 2.1036115,-2.104174 a 6.987343,6.9892116 0 0 0 4.1779788,1.398233 6.987343,6.9892116 0 0 0 4.177979,-1.398233 l 2.103612,2.104174 a 0.99829173,0.99855868 0 1 0 1.411505,-1.411883 L 16.58948,15.176953 A 6.987343,6.9892116 0 0 0 17.987339,10.997857 6.987343,6.9892116 0 0 0 16.58948,6.8187608 L 18.693092,4.7145867 A 0.99829173,0.99855868 0 0 0 17.967844,3.0004358 0.99829173,0.99855868 0 0 0 17.281587,3.3027036 l -2.103612,2.104174 A 6.987343,6.9892116 0 0 0 10.999996,4.0086452 6.987343,6.9892116 0 0 0 6.8220172,5.4068776 L 4.7184057,3.3027036 A 0.99829173,0.99855868 0 0 0 4.002905,3.0004358 Z m 6.997091,3.0051271 a 4.9909592,4.9922939 0 0 1 2.748927,0.8307489 L 10.999996,9.5859738 8.2510694,6.8363118 A 4.9909592,4.9922939 0 0 1 10.999996,6.0055629 Z m -4.1604325,2.2426322 2.748927,2.7496619 -2.748927,2.749661 A 4.9909592,4.9922939 0 0 1 6.0090367,10.997857 4.9909592,4.9922939 0 0 1 6.8395635,8.2481951 Z m 8.3208655,0 a 4.9909592,4.9922939 0 0 1 0.830527,2.7496619 4.9909592,4.9922939 0 0 1 -0.830527,2.749661 l -2.748928,-2.749661 z m -4.160433,4.1615439 2.748927,2.749663 a 4.9909592,4.9922939 0 0 1 -2.748927,0.830749 4.9909592,4.9922939 0 0 1 -2.7489266,-0.830749 z"/>
 </g>
 <g id="kup">
  <rect style="opacity:0.001" width="32" height="32" x="0" y="0"/>
  <path style="fill:currentColor" class="ColorScheme-Text" d="M 5.484375 3.984375 A 1.50015 1.50015 0 0 0 4.4394531 6.5605469 L 7.2402344 9.3613281 A 11 11 0 0 0 5 16 A 11 11 0 0 0 7.2441406 22.634766 L 4.4394531 25.439453 A 1.50015 1.50015 0 1 0 6.5605469 27.560547 L 9.3613281 24.759766 A 11 11 0 0 0 16 27 A 11 11 0 0 0 22.634766 24.755859 L 25.439453 27.560547 A 1.50015 1.50015 0 1 0 27.560547 25.439453 L 24.759766 22.638672 A 11 11 0 0 0 27 16 A 11 11 0 0 0 24.755859 9.3652344 L 27.560547 6.5605469 A 1.50015 1.50015 0 0 0 26.470703 3.9863281 A 1.50015 1.50015 0 0 0 25.439453 4.4394531 L 22.638672 7.2402344 A 11 11 0 0 0 16 5 A 11 11 0 0 0 9.3652344 7.2441406 L 6.5605469 4.4394531 A 1.50015 1.50015 0 0 0 5.484375 3.984375 z M 16 8 A 8 8 0 0 1 20.496094 9.3828125 L 16 13.878906 L 11.509766 9.3886719 A 8 8 0 0 1 16 8 z M 9.3828125 11.503906 L 13.878906 16 L 9.3886719 20.490234 A 8 8 0 0 1 8 16 A 8 8 0 0 1 9.3828125 11.503906 z M 22.611328 11.509766 A 8 8 0 0 1 24 16 A 8 8 0 0 1 22.617188 20.496094 L 18.121094 16 L 22.611328 11.509766 z M 16 18.121094 L 20.490234 22.611328 A 8 8 0 0 1 16 24 A 8 8 0 0 1 11.503906 22.617188 L 16 18.121094 z"/>
 </g>
</svg>

<?xml version="1.0" encoding="UTF-8"?>
<svg width="32" height="32" version="1" xmlns="http://www.w3.org/2000/svg">
 <defs id="materia">
  <style id="current-color-scheme" type="text/css">.ColorScheme-Background {color:#181818; } .ColorScheme-ButtonBackground { color:#343434; } .ColorScheme-Highlight { color:#4285f4; } .ColorScheme-Text { color:#dfdfdf; } .ColorScheme-ViewBackground { color:#242424; } .ColorScheme-NegativeText { color:#f44336; } .ColorScheme-PositiveText { color:#4caf50; } .ColorScheme-NeutralText { color:#ff9800; }</style>
 </defs>
 <g id="22-22-kup" transform="translate(32 10)">
  <rect width="22" height="22" opacity=".001"/>
  <path class="ColorScheme-Text" d="m4.0029 3.0004a0.99829 0.99856 0 0 0-0.696 1.7142l2.1036 2.1042a6.9873 6.9892 0 0 0-1.3979 4.1791 6.9873 6.9892 0 0 0 1.3979 4.1791l-2.1036 2.1042a0.99829 0.99856 0 1 0 1.4115 1.4119l2.1036-2.1042a6.9873 6.9892 0 0 0 4.178 1.3982 6.9873 6.9892 0 0 0 4.178-1.3982l2.1036 2.1042a0.99829 0.99856 0 1 0 1.4115-1.4119l-2.1036-2.1042a6.9873 6.9892 0 0 0 1.3979-4.1791 6.9873 6.9892 0 0 0-1.3979-4.1791l2.1036-2.1042a0.99829 0.99856 0 0 0-0.72525-1.7142 0.99829 0.99856 0 0 0-0.68626 0.30227l-2.1036 2.1042a6.9873 6.9892 0 0 0-4.178-1.3982 6.9873 6.9892 0 0 0-4.178 1.3982l-2.1036-2.1042a0.99829 0.99856 0 0 0-0.7155-0.30227zm6.9971 3.0051a4.991 4.9923 0 0 1 2.7489 0.83075l-2.7489 2.7497-2.7489-2.7497a4.991 4.9923 0 0 1 2.7489-0.83075zm-4.1604 2.2426 2.7489 2.7497-2.7489 2.7497a4.991 4.9923 0 0 1-0.83053-2.7497 4.991 4.9923 0 0 1 0.83053-2.7497zm8.3209 0a4.991 4.9923 0 0 1 0.83053 2.7497 4.991 4.9923 0 0 1-0.83053 2.7497l-2.7489-2.7497zm-4.1604 4.1615 2.7489 2.7497a4.991 4.9923 0 0 1-2.7489 0.83075 4.991 4.9923 0 0 1-2.7489-0.83075z" fill="currentColor"/>
 </g>
 <g id="kup">
  <rect width="32" height="32" opacity=".001"/>
  <path class="ColorScheme-Text" d="m5.4844 3.9844a1.5002 1.5002 0 0 0-1.0449 2.5762l2.8008 2.8008a11 11 0 0 0-2.2402 6.6387 11 11 0 0 0 2.2441 6.6348l-2.8047 2.8047a1.5002 1.5002 0 1 0 2.1211 2.1211l2.8008-2.8008a11 11 0 0 0 6.6387 2.2402 11 11 0 0 0 6.6348-2.2441l2.8047 2.8047a1.5002 1.5002 0 1 0 2.1211-2.1211l-2.8008-2.8008a11 11 0 0 0 2.2402-6.6387 11 11 0 0 0-2.2441-6.6348l2.8047-2.8047a1.5002 1.5002 0 0 0-1.0898-2.5742 1.5002 1.5002 0 0 0-1.0312 0.45312l-2.8008 2.8008a11 11 0 0 0-6.6387-2.2402 11 11 0 0 0-6.6348 2.2441l-2.8047-2.8047a1.5002 1.5002 0 0 0-1.0762-0.45508zm10.516 4.0156a8 8 0 0 1 4.4961 1.3828l-4.4961 4.4961-4.4902-4.4902a8 8 0 0 1 4.4902-1.3887zm-6.6172 3.5039 4.4961 4.4961-4.4902 4.4902a8 8 0 0 1-1.3887-4.4902 8 8 0 0 1 1.3828-4.4961zm13.229 0.00586a8 8 0 0 1 1.3887 4.4902 8 8 0 0 1-1.3828 4.4961l-4.4961-4.4961 4.4902-4.4902zm-6.6113 6.6113 4.4902 4.4902a8 8 0 0 1-4.4902 1.3887 8 8 0 0 1-4.4961-1.3828l4.4961-4.4961z" fill="currentColor"/>
 </g>
</svg>
